assets/symbols/mulberry/communication_aid.svg

<svg height="850.394" viewBox="0 0 850.394 850.394" width="850.394" xmlns="http://www.w3.org/2000/svg"><path d="m699.22 629.83.29.15c-4.14 8.88-12.899 15.01-23.04 15.01h-87.27v-59.6h110.02zm-110.02-98.78h110.02v54.34h-110.02zm0-54.35h110.02v54.35h-110.02z" fill="#ed1e29"/><path d="m589.2 422.35h110.02v54.35h-110.02zm0-54.35h110.02v54.35h-110.02z" fill="#ed1e29"/><path d="m479.18 639.75v5.24h-110.02v-59.6h110.02zm-110.02-108.7h110.02v54.34h-110.02zm0-54.35h110.02v54.35h-110.02z" fill="#abd150"/><path d="m369.16 422.35h110.02v54.35h-110.02z" fill="#abd150"/><path d="m589.2 639.75v5.24h-110.02v-59.6h110.02zm-110.02-108.7h110.021v54.34h-110.021zm0-54.35h110.021v54.35h-110.021z" fill="#a8d7f4"/><path d="m479.18 422.35h110.021v54.35h-110.021zm0-54.35h110.021v54.35h-110.021z" fill="#a8d7f4"/><path d="m369.16 368h110.02v54.35h-110.02z" fill="#abd150"/><path d="m369.16 639.75v5.24h-110.01v-59.6h110.01zm-110.01-108.7h110.01v54.34h-110.01zm0-54.35h110.01v54.35h-110.01z" fill="#fbed24"/><path d="m259.15 422.35h110.01v54.35h-110.01zm0-54.35h110.01v54.35h-110.01z" fill="#fbed24"/><path d="m259.15 639.75v5.24h-86.36c-12.08 0-22.21-8.73-24.88-20.44l1.22-.27v-38.89h110.02zm-110.02-108.7h110.02v54.34h-110.02zm0-54.35h110.02v54.35h-110.02z" fill="#fff"/><path d="m149.13 422.35h110.02v54.35h-110.02zm0-54.35h110.02v54.35h-110.02z" fill="#fff"/><path d="m551.05 726.3v-31.02h32.16v36.84c0 8.88-7.2 16.08-16.08 16.08-4.439 0-8.46-1.8-11.37-4.71s-4.71-6.931-4.71-11.37zm-258.38 0v4.99c0 8.88-7.2 16.08-16.08 16.08-4.44 0-8.46-1.8-11.37-4.71-2.9-2.91-4.7-6.93-4.7-11.37v-36.01h32.15z" fill="#ed107f"/><path d="m702.06 614.3v4.101c0 4.149-.92 8.08-2.55 11.58l-.29-.15v-261.831h-550.09v256.281l-1.22.27c-.45-1.97-.69-4.03-.69-6.149v-356.402c0-14.69 11.45-26.59 25.57-26.59h503.68c14.141 0 25.59 11.9 25.59 26.59z" fill="#fff"/><path d="m767.86 200.54v469.59c0 13.89-11.261 25.15-25.15 25.15h-635.34c-13.88 0-25.14-11.261-25.14-25.15v-469.59c0-13.89 11.26-25.15 25.14-25.15h635.34c13.89 0 25.15 11.26 25.15 25.15zm-21.55 216.93c0-7.09-5.75-12.85-12.85-12.85-7.08 0-12.84 5.76-12.84 12.85 0 7.08 5.76 12.83 12.84 12.83 7.1 0 12.85-5.75 12.85-12.83zm0 64.31c0-7.08-5.75-12.84-12.85-12.84-7.08 0-12.84 5.76-12.84 12.84 0 7.09 5.76 12.84 12.84 12.84 7.1 0 12.85-5.75 12.85-12.84zm-.27-126.7c0-7.08-5.76-12.84-12.85-12.84-7.091 0-12.841 5.76-12.841 12.84 0 7.1 5.75 12.85 12.841 12.85 7.09 0 12.85-5.75 12.85-12.85zm-43.98 263.32v-356.4c0-14.69-11.449-26.59-25.59-26.59h-503.68c-14.12 0-25.57 11.9-25.57 26.59v356.4c0 2.119.24 4.18.69 6.149 2.67 11.71 12.8 20.44 24.88 20.44h503.68c10.141 0 18.9-6.13 23.04-15.01a27.373 27.373 0 0 0 2.55-11.579zm-574.53-202.04c0-7.09-5.75-12.85-12.85-12.85-7.08 0-12.84 5.76-12.84 12.85 0 7.08 5.76 12.84 12.84 12.84 7.1 0 12.85-5.76 12.85-12.84zm0 64.31c0-7.08-5.75-12.83-12.85-12.83-7.08 0-12.84 5.75-12.84 12.83 0 7.09 5.76 12.84 12.84 12.84 7.1 0 12.85-5.75 12.85-12.84zm-.28-126.69c0-7.09-5.75-12.84-12.84-12.84s-12.84 5.75-12.84 12.84 5.75 12.84 12.84 12.84 12.84-5.75 12.84-12.84z" fill="#ed107f"/><path d="m733.46 404.62c7.1 0 12.85 5.76 12.85 12.85 0 7.08-5.75 12.83-12.85 12.83-7.08 0-12.84-5.75-12.84-12.83 0-7.09 5.76-12.85 12.84-12.85zm0 64.32c7.1 0 12.85 5.76 12.85 12.84 0 7.09-5.75 12.84-12.85 12.84-7.08 0-12.84-5.75-12.84-12.84 0-7.08 5.76-12.84 12.84-12.84zm-.27-126.7c7.09 0 12.85 5.76 12.85 12.84 0 7.1-5.76 12.85-12.85 12.85-7.091 0-12.841-5.75-12.841-12.85.001-7.08 5.751-12.84 12.841-12.84zm-618.51 61.27c7.1 0 12.85 5.76 12.85 12.85 0 7.08-5.75 12.84-12.85 12.84-7.08 0-12.84-5.76-12.84-12.84 0-7.09 5.76-12.85 12.84-12.85zm0 64.33c7.1 0 12.85 5.75 12.85 12.83 0 7.09-5.75 12.84-12.85 12.84-7.08 0-12.84-5.75-12.84-12.84 0-7.08 5.76-12.83 12.84-12.83z" fill="#231f20"/><circle cx="114.41" cy="353.98" fill="#231f20" r="12.84"/><g fill="none"><g stroke="#231f20"><g stroke-width="21"><path d="m537.19 175.39h205.52c13.89 0 25.15 11.26 25.15 25.15v469.59c0 13.89-11.261 25.15-25.15 25.15h-635.34c-13.88 0-25.14-11.261-25.14-25.15v-469.59c0-13.89 11.26-25.15 25.14-25.15z"/><path d="m179.01 644.99h-6.22c-12.08 0-22.21-8.73-24.88-20.44-.45-1.97-.69-4.03-.69-6.149v-2.44m523.04 29.029h-491.25m523.05-30.69v4.101c0 4.149-.92 8.08-2.55 11.58-4.14 8.88-12.899 15.01-23.04 15.01h-6.21"/><path d="m147.22 615.96v-353.96c0-14.69 11.45-26.59 25.57-26.59h503.68c14.141 0 25.59 11.9 25.59 26.59v352.3"/></g><path d="m312.08 171.28v-27.72c0-19.6 15.89-35.49 35.49-35.49h154.14c19.59 0 35.48 15.89 35.48 35.49v27.72" stroke-width="28"/><path d="m293.78 726.3h262.82m-263.93-26.06v31.05c0 8.88-7.2 16.08-16.08 16.08-4.44 0-8.46-1.8-11.37-4.71-2.9-2.91-4.7-6.93-4.7-11.37v-31.05m322.69.83v31.05c0 8.88-7.2 16.08-16.08 16.08-4.439 0-8.46-1.8-11.37-4.71s-4.71-6.931-4.71-11.37v-31.05" stroke-width="21"/><path d="m699.22 629.83v-261.83h-550.09v256.28m0-201.93h550.09m-550.09 54.35h550.09m-550.09 54.35h550.09m-550.09 54.34h550.09m-110.02 54.36v-271.75m-110.02 271.75v-271.75m-110.02 271.75v-271.75m-110.01 271.75v-271.75" stroke-width="14"/></g><path d="m0 0h850.394v850.394h-850.394z"/></g></svg>

<svg xmlns="http://www.w3.org/2000/svg" width="850.394" height="850.394" viewBox="0 0 850.394 850.394" overflow="visible"><path d="M699.22 629.83l.29.15c-4.14 8.88-12.899 15.01-23.04 15.01H589.2v-59.6h110.02v44.44zM589.2 531.05h110.02v54.34H589.2zM589.2 476.7h110.02v54.35H589.2z" fill="#ed1e29"/><path fill="#ed1e29" d="M589.2 422.35h110.02v54.35H589.2zM589.2 368h110.02v54.35H589.2z"/><path fill="#abd150" d="M479.18 639.75v5.24H369.16v-59.6h110.02zM369.16 531.05h110.02v54.34H369.16zM369.16 476.7h110.02v54.35H369.16z"/><path fill="#abd150" d="M369.16 422.35h110.02v54.35H369.16z"/><path fill="#a8d7f4" d="M589.2 639.75v5.24H479.18v-59.6H589.2zM479.18 531.05h110.021v54.34H479.18zM479.18 476.7h110.021v54.35H479.18z"/><path fill="#a8d7f4" d="M479.18 422.35h110.021v54.35H479.18zM479.18 368h110.021v54.35H479.18z"/><path fill="#abd150" d="M369.16 368h110.02v54.35H369.16z"/><path fill="#fbed24" d="M369.16 639.75v5.24H259.15v-59.6h110.01zM259.15 531.05h110.01v54.34H259.15zM259.15 476.7h110.01v54.35H259.15z"/><path fill="#fbed24" d="M259.15 422.35h110.01v54.35H259.15zM259.15 368h110.01v54.35H259.15z"/><path d="M259.15 639.75v5.24h-86.36c-12.08 0-22.21-8.73-24.88-20.44l1.22-.27v-38.89h110.02v54.36zM149.13 531.05h110.02v54.34H149.13zM149.13 476.7h110.02v54.35H149.13z" fill="#fff"/><path fill="#fff" d="M149.13 422.35h110.02v54.35H149.13zM149.13 368h110.02v54.35H149.13z"/><path d="M551.05 726.3v-31.02h32.16v36.84c0 8.88-7.2 16.08-16.08 16.08-4.439 0-8.46-1.8-11.37-4.71s-4.71-6.931-4.71-11.37v-5.82zM292.67 726.3v4.99c0 8.88-7.2 16.08-16.08 16.08-4.44 0-8.46-1.8-11.37-4.71-2.9-2.91-4.7-6.93-4.7-11.37v-36.01h32.15v31.02z" fill="#ed107f"/><path d="M702.06 614.3v4.101c0 4.149-.92 8.08-2.55 11.58l-.29-.15V368H149.13v256.281l-1.22.27c-.45-1.97-.69-4.03-.69-6.149V262c0-14.69 11.45-26.59 25.57-26.59h503.68c14.141 0 25.59 11.9 25.59 26.59v352.3z" fill="#fff"/><path d="M767.86 200.54v469.59c0 13.89-11.261 25.15-25.15 25.15H107.37c-13.88 0-25.14-11.261-25.14-25.15V200.54c0-13.89 11.26-25.15 25.14-25.15h635.34c13.89 0 25.15 11.26 25.15 25.15zm-21.55 216.93c0-7.09-5.75-12.85-12.85-12.85-7.08 0-12.84 5.76-12.84 12.85 0 7.08 5.76 12.83 12.84 12.83 7.1 0 12.85-5.75 12.85-12.83zm0 64.31c0-7.08-5.75-12.84-12.85-12.84-7.08 0-12.84 5.76-12.84 12.84 0 7.09 5.76 12.84 12.84 12.84 7.1 0 12.85-5.75 12.85-12.84zm-.27-126.7c0-7.08-5.76-12.84-12.85-12.84-7.091 0-12.841 5.76-12.841 12.84 0 7.1 5.75 12.85 12.841 12.85 7.09 0 12.85-5.75 12.85-12.85zM702.06 618.4V262c0-14.69-11.449-26.59-25.59-26.59H172.79c-14.12 0-25.57 11.9-25.57 26.59v356.4c0 2.119.24 4.18.69 6.149 2.67 11.71 12.8 20.44 24.88 20.44H676.47c10.141 0 18.9-6.13 23.04-15.01a27.373 27.373 0 0 0 2.55-11.579zM127.53 416.36c0-7.09-5.75-12.85-12.85-12.85-7.08 0-12.84 5.76-12.84 12.85 0 7.08 5.76 12.84 12.84 12.84 7.1 0 12.85-5.76 12.85-12.84zm0 64.31c0-7.08-5.75-12.83-12.85-12.83-7.08 0-12.84 5.75-12.84 12.83 0 7.09 5.76 12.84 12.84 12.84 7.1 0 12.85-5.75 12.85-12.84zm-.28-126.69c0-7.09-5.75-12.84-12.84-12.84s-12.84 5.75-12.84 12.84 5.75 12.84 12.84 12.84 12.84-5.75 12.84-12.84z" fill="#ed107f"/><path d="M733.46 404.62c7.1 0 12.85 5.76 12.85 12.85 0 7.08-5.75 12.83-12.85 12.83-7.08 0-12.84-5.75-12.84-12.83 0-7.09 5.76-12.85 12.84-12.85zM733.46 468.94c7.1 0 12.85 5.76 12.85 12.84 0 7.09-5.75 12.84-12.85 12.84-7.08 0-12.84-5.75-12.84-12.84 0-7.08 5.76-12.84 12.84-12.84zM733.19 342.24c7.09 0 12.85 5.76 12.85 12.84 0 7.1-5.76 12.85-12.85 12.85-7.091 0-12.841-5.75-12.841-12.85.001-7.08 5.751-12.84 12.841-12.84zM114.68 403.51c7.1 0 12.85 5.76 12.85 12.85 0 7.08-5.75 12.84-12.85 12.84-7.08 0-12.84-5.76-12.84-12.84 0-7.09 5.76-12.85 12.84-12.85zM114.68 467.84c7.1 0 12.85 5.75 12.85 12.83 0 7.09-5.75 12.84-12.85 12.84-7.08 0-12.84-5.75-12.84-12.84 0-7.08 5.76-12.83 12.84-12.83z" fill="#231f20"/><circle cx="114.41" cy="353.98" r="12.84" fill="#231f20"/><g fill="none" stroke="#231f20"><path d="M537.19 175.39h205.52c13.89 0 25.15 11.26 25.15 25.15v469.59c0 13.89-11.261 25.15-25.15 25.15H107.37c-13.88 0-25.14-11.261-25.14-25.15V200.54c0-13.89 11.26-25.15 25.14-25.15H537.19z" stroke-width="21"/><path d="M179.01 644.99h-6.22c-12.08 0-22.21-8.73-24.88-20.44-.45-1.97-.69-4.03-.69-6.149v-2.44M670.26 644.99H179.01M702.06 614.3v4.101c0 4.149-.92 8.08-2.55 11.58-4.14 8.88-12.899 15.01-23.04 15.01h-6.21" stroke-width="21"/><path d="M147.22 615.96V262c0-14.69 11.45-26.59 25.57-26.59h503.68c14.141 0 25.59 11.9 25.59 26.59v352.3" stroke-width="21"/><path d="M312.08 171.28v-27.72c0-19.6 15.89-35.49 35.49-35.49h154.14c19.59 0 35.48 15.89 35.48 35.49v27.72" stroke-width="28"/><path stroke-width="21" d="M293.78 726.3H556.6M292.67 700.24V731.29c0 8.88-7.2 16.08-16.08 16.08-4.44 0-8.46-1.8-11.37-4.71-2.9-2.91-4.7-6.93-4.7-11.37v-31.05M583.21 701.07v31.05c0 8.88-7.2 16.08-16.08 16.08-4.439 0-8.46-1.8-11.37-4.71s-4.71-6.931-4.71-11.37v-31.05"/><path stroke-width="14" d="M699.22 629.83V368H149.13V624.28M149.13 422.35h550.09M149.13 476.7h550.09M149.13 531.05h550.09M149.13 585.39h550.09M589.2 639.75V368M479.18 639.75V368M369.16 639.75V368M259.15 639.75V368"/></g><path fill="none" d="M0 0h850.394v850.394H0z"/></svg>
